web/workspace/public/assets/icons/sun.svg

<svg xmlns="http://www.w3.org/2000/svg" width="30" height="30" viewBox="0 0 30 30"><path d="M16 4.051V0h-2v4.051c.33-.03.663-.051 1-.051s.67.021 1 .051zm-5.606.97L8.366 1.51l-1.732 1 2.027 3.511a10.899 10.899 0 0 1 1.733-1zM23.365 2.51l-1.731-.999-2.026 3.511c.609.281 1.189.614 1.732.998l2.025-3.51zM6.02 8.66L2.51 6.634l-1 1.732 3.512 2.027c.281-.61.614-1.189.998-1.733zM15 6c-4.971 0-9 4.029-9 9s4.029 9 9 9 9-4.029 9-9-4.029-9-9-9zm0 16a7 7 0 1 1 0-14 7 7 0 0 1 0 14zM28.49 8.366l-1-1.731-3.51 2.026c.384.543.717 1.123.998 1.732l3.512-2.027zm-8.884 16.613l2.027 3.511 1.732-1-2.026-3.511a10.81 10.81 0 0 1-1.733 1zm4.374-3.639l3.51 2.026 1-1.732-3.512-2.027c-.281.61-.614 1.189-.998 1.733zM25.949 14c.03.33.051.662.051 1s-.021.67-.051 1H30v-2h-4.051zM14 25.949V30h2v-4.051c-.33.03-.663.051-1 .051s-.67-.021-1-.051zM6.634 27.49l1.732 1.001 2.028-3.512a10.97 10.97 0 0 1-1.733-.999l-2.027 3.51zM4 15c0-.338.021-.67.05-1H0v2h4.05c-.029-.33-.05-.662-.05-1zm-2.49 6.634l1 1.732 3.51-2.026a11.016 11.016 0 0 1-.999-1.733L1.51 21.634z"/></svg>

<?xml version="1.0" encoding="iso-8859-1"?>
<!-- Generator: Adobe Illustrator 14.0.0, SVG Export Plug-In . SVG Version: 6.00 Build 43363)  -->
<!DOCTYPE svg PUBLIC "-//W3C//DTD SVG 1.1//EN" "http://www.w3.org/Graphics/SVG/1.1/DTD/svg11.dtd">
<svg version="1.1" id="Layer_1" xmlns="http://www.w3.org/2000/svg" xmlns:xlink="http://www.w3.org/1999/xlink" x="0px" y="0px"
	 width="30px" height="30px" viewBox="0 0 30 30" style="enable-background:new 0 0 30 30;" xml:space="preserve">
<path d="M16,4.051V0h-2v4.051C14.33,4.021,14.663,4,15,4S15.67,4.021,16,4.051z M10.394,5.021L8.366,1.51l-1.732,1l2.027,3.511
	C9.204,5.636,9.784,5.303,10.394,5.021z M23.365,2.51l-1.731-0.999l-2.026,3.511c0.609,0.281,1.189,0.614,1.732,0.998L23.365,2.51z
	 M6.02,8.66L2.51,6.634l-1,1.732l3.512,2.027C5.303,9.783,5.636,9.204,6.02,8.66z M15,6c-4.971,0-9,4.029-9,9s4.029,9,9,9
	s9-4.029,9-9S19.971,6,15,6z M15,22c-3.866,0-7-3.134-7-7s3.134-7,7-7s7,3.134,7,7S18.866,22,15,22z M28.49,8.366l-1-1.731
	l-3.51,2.026c0.384,0.543,0.717,1.123,0.998,1.732L28.49,8.366z M19.606,24.979l2.027,3.511l1.732-1l-2.026-3.511
	C20.797,24.364,20.217,24.697,19.606,24.979z M23.98,21.34l3.51,2.026l1-1.732l-3.512-2.027
	C24.697,20.217,24.364,20.796,23.98,21.34z M25.949,14C25.979,14.33,26,14.662,26,15s-0.021,0.67-0.051,1H30v-2H25.949z M14,25.949
	V30h2v-4.051C15.67,25.979,15.337,26,15,26S14.33,25.979,14,25.949z M6.634,27.49l1.732,1.001l2.028-3.512
	c-0.61-0.282-1.19-0.615-1.733-0.999L6.634,27.49z M4,15c0-0.338,0.021-0.67,0.05-1H0v2h4.05C4.021,15.67,4,15.338,4,15z
	 M1.51,21.634l1,1.732L6.02,21.34c-0.384-0.544-0.717-1.123-0.999-1.733L1.51,21.634z"/>
</svg>
